Quickit/src/img/icons/github.svg

<svg width="41" height="43" viewBox="0 0 41 43" fill="none" xmlns="http://www.w3.org/2000/svg">
<path fill-rule="evenodd" clip-rule="evenodd" d="M15.0557 3.25226C19.2939 2.25554 23.7059 2.25554 27.9441 3.25226C30.3917 1.69412 32.2764 0.987252 33.6396 0.690916C34.3728 0.531525 34.9514 0.491806 35.3796 0.501322C35.5933 0.506071 35.768 0.523049 35.9041 0.542939C35.9722 0.552874 36.0303 0.563504 36.0788 0.57363C36.103 0.578692 36.1248 0.583623 36.1441 0.58827L36.1712 0.595008L36.1833 0.59818L36.1891 0.599711L36.1919 0.600461C36.1932 0.600832 36.1946 0.601201 35.7999 2.04835L36.1946 0.601201C36.6272 0.719192 36.9844 1.02456 37.1681 1.4336C38.1876 3.70261 38.3727 6.24811 37.7096 8.62544C39.3969 10.6694 40.3305 13.244 40.3332 15.9135L40.3332 15.915C40.3332 21.2084 38.7658 24.7621 36.1318 27.0428C34.1723 28.7393 31.7577 29.6092 29.3323 30.0755C29.3696 30.2166 29.4005 30.3613 29.4253 30.5101C29.529 31.1319 29.5177 31.867 29.5067 32.5889C29.5033 32.8112 29.4999 33.0323 29.4999 33.2483V40.8317C29.4999 41.6601 28.8283 42.3317 27.9999 42.3317C27.1715 42.3317 26.4999 41.6601 26.4999 40.8317V33.2483C26.4999 32.8588 26.5045 32.5412 26.5084 32.2738C26.5169 31.6839 26.522 31.3382 26.4661 31.0033C26.4172 30.7097 26.3219 30.4417 25.8559 29.9757C25.4474 29.5672 25.3098 28.9605 25.5021 28.4157C25.6944 27.871 26.1824 27.4851 26.7568 27.4235C29.6903 27.1092 32.2961 26.3956 34.168 24.7748C35.9755 23.2098 37.3329 20.5889 37.3332 15.9165C37.331 13.717 36.4729 11.6046 34.9405 10.0267C34.5358 9.61002 34.4081 8.9972 34.6126 8.45357C35.2089 6.86831 35.2556 5.1383 34.7613 3.53659C34.6213 3.55523 34.4599 3.58265 34.2769 3.62245C33.2505 3.84558 31.5267 4.46104 29.0486 6.11309C28.6927 6.35036 28.2525 6.4244 27.8385 6.31659C23.6821 5.2341 19.3177 5.2341 15.1613 6.31659C14.7474 6.4244 14.3071 6.35036 13.9512 6.11309C11.4731 4.46104 9.74933 3.84558 8.72292 3.62245C8.53988 3.58265 8.37855 3.55523 8.23853 3.53659C7.74417 5.1383 7.79088 6.86831 8.38719 8.45357C8.59168 8.9972 8.46396 9.61002 8.05932 10.0267C6.52711 11.6045 5.66899 13.7165 5.66657 15.9159C5.66673 20.5886 7.02424 23.2097 8.83177 24.7748C10.7037 26.3956 13.3095 27.1092 16.243 27.4235C16.8174 27.4851 17.3054 27.871 17.4977 28.4157C17.69 28.9605 17.5524 29.5672 17.1439 29.9757C16.6939 30.4257 16.5215 30.8092 16.4458 31.2025C16.3585 31.6564 16.3819 32.211 16.4883 33.0623C16.496 33.124 16.4999 33.1861 16.4999 33.2483V36.4639C16.5004 36.4871 16.5004 36.5103 16.4999 36.5334V40.8317C16.4999 41.6601 15.8283 42.3317 14.9999 42.3317C14.1715 42.3317 13.4999 41.6601 13.4999 40.8317V38.4382C11.8435 38.7556 10.4112 38.7115 9.15211 38.3593C7.41026 37.8721 6.18658 36.8471 5.25549 35.7764C4.67363 35.1072 4.11299 34.2914 3.64633 33.6124C3.4316 33.3 3.23676 33.0165 3.06892 32.7895C2.43014 31.9259 1.99076 31.5592 1.57665 31.4374C0.781889 31.2036 0.327101 30.3699 0.560855 29.5751C0.794609 28.7803 1.62839 28.3255 2.42315 28.5593C3.85071 28.9792 4.79258 30.075 5.48088 31.0056C5.78144 31.412 6.03536 31.7843 6.27689 32.1385C6.67379 32.7205 7.03725 33.2535 7.51931 33.8078C8.21323 34.6058 8.96662 35.1923 9.9602 35.4702C10.7921 35.7029 11.92 35.7546 13.4999 35.3686V33.3406C13.3956 32.4844 13.3228 31.5566 13.4998 30.6359C13.5367 30.444 13.5837 30.2555 13.6415 30.0704C11.2248 29.6029 8.82044 28.7333 6.86803 27.0428C4.23401 24.7621 2.66657 21.2084 2.66657 15.915L2.66657 15.9135C2.66929 13.244 3.60286 10.6694 5.29022 8.62544C4.62709 6.24811 4.81221 3.70261 5.83166 1.4336C6.01544 1.02456 6.37259 0.719192 6.80523 0.601202L7.1999 2.04835C6.80523 0.601202 6.80658 0.600832 6.80795 0.600461L6.81073 0.599711L6.81647 0.59818L6.82864 0.595008L6.85575 0.58827C6.87505 0.583623 6.8968 0.578692 6.92101 0.573631C6.96946 0.563504 7.02765 0.552874 7.09567 0.542939C7.23183 0.523049 7.40652 0.506071 7.62022 0.501322C8.04845 0.491806 8.62701 0.531525 9.36021 0.690916C10.7234 0.987252 12.6081 1.69412 15.0557 3.25226Z" fill="white"/>
</svg>

<svg xmlns="http://www.w3.org/2000/svg" width="41" height="43" fill="none" xmlns:v="https://vecta.io/nano"><path fill-rule="evenodd" d="M15.056 3.252a28.15 28.15 0 0 1 12.888 0C30.392 1.694 32.276.987 33.64.691c.733-.159 1.312-.199 1.74-.19a4.3 4.3 0 0 1 .524.042 2.91 2.91 0 0 1 .175.031 2.23 2.23 0 0 1 .065.015l.027.007.012.003.006.002h.003c.001 0 .003.001-.392 1.448l.395-1.447a1.5 1.5 0 0 1 .974.832 10.6 10.6 0 0 1 .541 7.192c1.687 2.044 2.621 4.619 2.624 7.288v.001c0 5.293-1.567 8.847-4.201 11.128-1.959 1.697-4.374 2.566-6.799 3.033a4.76 4.76 0 0 1 .093.435c.104.622.092 1.357.081 2.079l-.007.659v7.583a1.5 1.5 0 1 1-3 0v-7.583l.009-.974c.008-.59.014-.936-.042-1.271-.049-.294-.144-.562-.61-1.028a1.5 1.5 0 0 1 .901-2.552c2.934-.314 5.539-1.028 7.411-2.649 1.807-1.565 3.165-4.186 3.165-8.858-.002-2.199-.86-4.312-2.393-5.89a1.5 1.5 0 0 1-.328-1.573 7.6 7.6 0 0 0 .149-4.917c-.14.019-.301.046-.484.086-1.026.223-2.75.839-5.228 2.491a1.5 1.5 0 0 1-1.21.204 25.15 25.15 0 0 0-12.677 0 1.5 1.5 0 0 1-1.21-.203c-2.478-1.652-4.202-2.268-5.228-2.491-.183-.04-.344-.067-.484-.086a7.6 7.6 0 0 0 .149 4.917 1.5 1.5 0 0 1-.328 1.573c-1.532 1.578-2.39 3.69-2.393 5.889 0 4.673 1.358 7.294 3.165 8.859 1.872 1.621 4.478 2.334 7.411 2.649a1.5 1.5 0 0 1 .901 2.552c-.45.45-.622.834-.698 1.227-.087.454-.064 1.008.043 1.86a1.5 1.5 0 0 1 .012.186v3.216a1.61 1.61 0 0 1 0 .069v4.298a1.5 1.5 0 1 1-3 0v-2.393c-1.656.317-3.089.273-4.348-.079-1.742-.487-2.966-1.512-3.897-2.583-.582-.669-1.142-1.485-1.609-2.164l-.577-.823c-.639-.864-1.078-1.23-1.492-1.352a1.5 1.5 0 1 1 .847-2.878c1.428.42 2.369 1.516 3.058 2.446.301.406.554.779.796 1.133.397.582.76 1.115 1.242 1.669.694.798 1.447 1.385 2.441 1.662.832.233 1.96.284 3.54-.102v-2.028c-.104-.856-.177-1.784 0-2.705a5.17 5.17 0 0 1 .142-.566c-2.417-.467-4.821-1.337-6.773-3.028-2.634-2.281-4.201-5.834-4.201-11.128v-.001c.003-2.67.936-5.244 2.624-7.288a10.6 10.6 0 0 1 .541-7.192 1.5 1.5 0 0 1 .974-.832L7.2 2.048 6.808.6h.003l.006-.002.012-.003.027-.007.065-.015c.048-.01.107-.021.175-.031A4.3 4.3 0 0 1 7.62.501c.428-.01 1.007.03 1.74.19 1.363.296 3.248 1.003 5.695 2.561z" fill="#fff"/></svg>
